polaris-icons/icons/new-icons/FaviconMajor.svg

<svg width="20" height="20" viewBox="0 0 20 20" fill="none" xmlns="http://www.w3.org/2000/svg">
<path d="M6.5 8.5C6.5 8.08579 6.16421 7.75 5.75 7.75C5.33579 7.75 5 8.08579 5 8.5V11.5C5 11.9142 5.33579 12.25 5.75 12.25C6.16421 12.25 6.5 11.9142 6.5 11.5V8.5Z" fill="#4A4A4A"/>
<path d="M9.5 9.25C9.08579 9.25 8.75 9.58579 8.75 10C8.75 10.4142 9.08579 10.75 9.5 10.75C9.91421 10.75 10.25 11.0858 10.25 11.5C10.25 11.9142 9.91421 12.25 9.5 12.25C8.25736 12.25 7.25 11.2426 7.25 10C7.25 8.75736 8.25736 7.75 9.5 7.75C9.91421 7.75 10.25 8.08579 10.25 8.5C10.25 8.91421 9.91421 9.25 9.5 9.25Z" fill="#4A4A4A"/>
<path fill-rule="evenodd" clip-rule="evenodd" d="M13 7.75C11.7574 7.75 10.75 8.75736 10.75 10C10.75 11.2426 11.7574 12.25 13 12.25C14.2426 12.25 15.25 11.2426 15.25 10C15.25 8.75736 14.2426 7.75 13 7.75ZM12.25 10C12.25 9.58579 12.5858 9.25 13 9.25C13.4142 9.25 13.75 9.58579 13.75 10C13.75 10.4142 13.4142 10.75 13 10.75C12.5858 10.75 12.25 10.4142 12.25 10Z" fill="#4A4A4A"/>
<path fill-rule="evenodd" clip-rule="evenodd" d="M13.5804 4.5H6.41957C5.88542 4.49999 5.43956 4.49998 5.07533 4.52974C4.69545 4.56078 4.33879 4.62789 4.00153 4.79973C3.48408 5.06338 3.06338 5.48408 2.79973 6.00153C2.62789 6.33879 2.56078 6.69545 2.52974 7.07533C2.49998 7.43956 2.49999 7.88541 2.5 8.41956V11.5804C2.49999 12.1146 2.49998 12.5604 2.52974 12.9247C2.56078 13.3046 2.62789 13.6612 2.79973 13.9985C3.06338 14.5159 3.48408 14.9366 4.00153 15.2003C4.33879 15.3721 4.69545 15.4392 5.07533 15.4703C5.43955 15.5 5.88538 15.5 6.41951 15.5H13.5805C14.1146 15.5 14.5605 15.5 14.9247 15.4703C15.3046 15.4392 15.6612 15.3721 15.9985 15.2003C16.5159 14.9366 16.9366 14.5159 17.2003 13.9985C17.3721 13.6612 17.4392 13.3046 17.4703 12.9247C17.5 12.5605 17.5 12.1146 17.5 11.5805V8.41955C17.5 7.88542 17.5 7.43955 17.4703 7.07533C17.4392 6.69545 17.3721 6.33879 17.2003 6.00153C16.9366 5.48408 16.5159 5.06338 15.9985 4.79973C15.6612 4.62789 15.3046 4.56078 14.9247 4.52974C14.5604 4.49998 14.1146 4.49999 13.5804 4.5ZM4.68251 6.13624C4.77307 6.0901 4.91036 6.04822 5.19748 6.02476C5.49336 6.00058 5.87757 6 6.45 6H13.55C14.1224 6 14.5066 6.00058 14.8025 6.02476C15.0896 6.04822 15.2269 6.0901 15.3175 6.13624C15.5527 6.25608 15.7439 6.44731 15.8638 6.68251C15.9099 6.77307 15.9518 6.91036 15.9752 7.19748C15.9994 7.49336 16 7.87757 16 8.45V11.55C16 12.1224 15.9994 12.5066 15.9752 12.8025C15.9518 13.0896 15.9099 13.2269 15.8638 13.3175C15.7439 13.5527 15.5527 13.7439 15.3175 13.8638C15.2269 13.9099 15.0896 13.9518 14.8025 13.9752C14.5066 13.9994 14.1224 14 13.55 14H6.45C5.87757 14 5.49336 13.9994 5.19748 13.9752C4.91036 13.9518 4.77307 13.9099 4.68251 13.8638C4.44731 13.7439 4.25608 13.5527 4.13624 13.3175C4.0901 13.2269 4.04822 13.0896 4.02476 12.8025C4.00058 12.5066 4 12.1224 4 11.55V8.45C4 7.87757 4.00058 7.49336 4.02476 7.19748C4.04822 6.91036 4.0901 6.77307 4.13624 6.68251C4.25608 6.44731 4.44731 6.25608 4.68251 6.13624Z" fill="#4A4A4A"/>
</svg>

<svg viewBox="0 0 20 20" xmlns="http://www.w3.org/2000/svg"><path d="M6.5 8.5a.75.75 0 0 0-1.5 0v3a.75.75 0 0 0 1.5 0v-3Z" fill="#5C5F62"/><path d="M9.5 9.25a.75.75 0 0 0 0 1.5.75.75 0 0 1 0 1.5 2.25 2.25 0 0 1 0-4.5.75.75 0 0 1 0 1.5Z" fill="#5C5F62"/><path fill-rule="evenodd" d="M13 7.75a2.25 2.25 0 1 0 0 4.5 2.25 2.25 0 0 0 0-4.5Zm-.75 2.25a.75.75 0 1 1 1.5 0 .75.75 0 0 1-1.5 0Z" fill="#5C5F62"/><path fill-rule="evenodd" d="M13.58 4.5h-7.16c-.535 0-.98 0-1.345.03-.38.03-.736.098-1.073.27a2.75 2.75 0 0 0-1.202 1.202c-.172.337-.24.693-.27 1.073-.03.365-.03.81-.03 1.345v3.16c0 .535 0 .98.03 1.345.03.38.098.736.27 1.073a2.75 2.75 0 0 0 1.202 1.202c.337.172.693.24 1.073.27.365.03.81.03 1.345.03h7.16c.535 0 .98 0 1.345-.03.38-.03.736-.098 1.073-.27a2.751 2.751 0 0 0 1.202-1.201c.172-.338.24-.694.27-1.074.03-.365.03-.81.03-1.345v-3.16c0-.535 0-.98-.03-1.345-.03-.38-.098-.736-.27-1.073a2.75 2.75 0 0 0-1.201-1.202c-.338-.172-.694-.24-1.074-.27-.365-.03-.81-.03-1.345-.03Zm-8.897 1.636c.09-.046.227-.088.514-.111.296-.024.68-.025 1.253-.025h7.1c.572 0 .957 0 1.252.025.288.023.425.065.516.111.235.12.426.311.546.547.046.09.088.227.111.514.024.296.025.68.025 1.253v3.1c0 .572 0 .957-.025 1.252-.023.288-.065.425-.111.516a1.25 1.25 0 0 1-.546.546c-.091.046-.228.088-.515.111-.296.024-.68.025-1.253.025h-7.1c-.572 0-.957 0-1.253-.025-.287-.023-.424-.065-.514-.111a1.25 1.25 0 0 1-.547-.546c-.046-.091-.088-.228-.111-.515-.024-.296-.025-.68-.025-1.253v-3.1c0-.572 0-.957.025-1.253.023-.287.065-.424.111-.514a1.25 1.25 0 0 1 .547-.547Z" fill="#5C5F62"/></svg>
